arb/images/icons/logos_telegram.svg

<svg width="32" height="33" viewBox="0 0 32 33" fill="none" xmlns="http://www.w3.org/2000/svg">
<g clip-path="url(#clip0)">
<path d="M16 0.65332C7.16337 0.65332 0 7.8167 0 16.6533C0 25.4899 7.16337 32.6533 16 32.6533C24.8366 32.6533 32 25.4899 32 16.6533C32 7.8167 24.8366 0.65332 16 0.65332Z" fill="#687A95"/>
<path d="M23.7854 9.8567L20.9276 24.2653C20.9276 24.2653 20.5279 25.2646 19.4288 24.7849L12.8341 19.7289L10.4361 18.5699L6.39931 17.2109C6.39931 17.2109 5.77981 16.9912 5.71981 16.5116C5.65981 16.0319 6.41931 15.7722 6.41931 15.7722L22.4663 9.4772C22.4663 9.4772 23.7853 8.8977 23.7853 9.85695" fill="white"/>
<path d="M12.3272 24.1033C12.3272 24.1033 12.1347 24.0853 11.8947 23.3258C11.6551 22.5664 10.4359 18.5697 10.4359 18.5697L20.1282 12.4147C20.1282 12.4147 20.6878 12.0749 20.6678 12.4147C20.6678 12.4147 20.7677 12.4747 20.4678 12.7544C20.1682 13.0343 12.8541 19.6089 12.8541 19.6089" fill="#D2E5F1"/>
<path d="M15.3628 21.668L12.7544 24.0463C12.7544 24.0463 12.5504 24.201 12.3274 24.104L12.8269 19.6865" fill="#B5CFE4"/>
</g>
<defs>
<clipPath id="clip0">
<rect width="32" height="32" fill="white" transform="translate(0 0.65332)"/>
</clipPath>
</defs>
</svg>

<svg width="32" height="33" fill="none" xmlns="http://www.w3.org/2000/svg"><g clip-path="url(#clip0)"><path d="M16 .653c-8.837 0-16 7.164-16 16 0 8.837 7.163 16 16 16s16-7.163 16-16c0-8.836-7.163-16-16-16z" fill="#687A95"/><path d="M23.785 9.857l-2.857 14.408s-.4 1-1.5.52l-6.594-5.056-2.398-1.16L6.4 17.212s-.62-.22-.68-.7c-.06-.48.7-.739.7-.739l16.047-6.295s1.32-.58 1.32.38" fill="#fff"/><path d="M12.327 24.103s-.192-.018-.432-.777c-.24-.76-1.46-4.756-1.46-4.756l9.693-6.155s.56-.34.54 0c0 0 .1.06-.2.34-.3.28-7.614 6.854-7.614 6.854" fill="#D2E5F1"/><path d="M15.363 21.668l-2.609 2.378s-.204.155-.427.058l.5-4.418" fill="#B5CFE4"/></g><defs><clipPath id="clip0"><path fill="#fff" transform="translate(0 .653)" d="M0 0h32v32H0z"/></clipPath></defs></svg>
